dist/img/surf/map_slider/Surf.svg

<svg width="40" height="25" viewBox="0 0 40 25" fill="none" xmlns="http://www.w3.org/2000/svg">
<path d="M26.3578 4.86535C26.4459 4.78552 26.534 4.70734 26.6205 4.62917C26.795 4.47448 26.9645 4.31647 27.1308 4.16011C27.292 3.99378 27.4832 3.884 27.6511 3.74262C27.8239 3.6079 27.9902 3.46818 28.1597 3.34344C28.5104 3.1189 28.8362 2.87106 29.167 2.68145C29.4978 2.49683 29.8053 2.29391 30.1112 2.15584C30.2624 2.07767 30.4071 2.00282 30.545 1.9313C30.688 1.8681 30.8243 1.80656 30.9539 1.75001C31.4742 1.50883 31.9047 1.36246 32.2006 1.25434C32.4981 1.15787 32.6577 1.10797 32.6577 1.10797L32.6727 1.10298C32.7258 1.08634 32.7707 1.0431 32.789 0.986547C32.8189 0.891739 32.7657 0.790279 32.6727 0.760341C32.6727 0.760341 32.4931 0.703791 32.164 0.643911C31.9995 0.617299 31.7917 0.57738 31.5507 0.562409C31.308 0.54245 31.0254 0.51251 30.7112 0.52249C30.5533 0.524154 30.3854 0.520827 30.2109 0.530807C30.0363 0.545776 29.8535 0.562409 29.664 0.580706C29.2783 0.607319 28.8744 0.695472 28.4339 0.78529C28.2095 0.821882 27.9918 0.891739 27.7641 0.961596C27.5347 1.03312 27.2986 1.1063 27.0576 1.18115C26.5955 1.37575 26.0902 1.56869 25.5982 1.83147C25.3555 1.96786 25.1062 2.10923 24.8552 2.26059C24.7288 2.33543 24.6025 2.41195 24.4745 2.48846C24.3548 2.57661 24.2335 2.66476 24.1121 2.75292C23.8711 2.93754 23.6251 3.12383 23.3741 3.31344C23.1148 3.4964 22.9086 3.73425 22.671 3.95214C22.4399 4.17834 22.2055 4.40621 21.9695 4.63742C21.7584 4.88857 21.5473 5.14471 21.3395 5.40918C21.1351 5.6753 20.9124 5.9381 20.7229 6.22083C20.5417 6.50858 20.3705 6.80631 20.1926 7.10402C20.0247 7.4084 19.8369 7.69946 19.6873 8.02213C19.541 8.35146 19.4047 8.68744 19.2668 9.0251C19.1288 9.36108 18.9908 9.70037 18.8628 10.0414C18.7747 10.3574 18.685 10.6767 18.5952 10.9961C18.5054 11.3154 18.4157 11.6364 18.3259 11.9574L18.1747 12.4864L18.0567 12.9238C18.0151 13.0702 17.9818 13.2182 17.9353 13.3629L17.7774 13.787L17.6195 14.2145C17.5646 14.3559 17.4948 14.4889 17.4333 14.6286C16.928 15.7314 16.2598 16.7593 15.4586 17.6674C14.6558 18.5739 13.7432 19.3773 12.7658 20.0493C11.7901 20.7262 10.7578 21.2701 9.74385 21.7275C8.72658 22.1816 7.72258 22.5342 6.77675 22.8103C4.88348 23.3675 3.23455 23.6237 2.08102 23.7733C0.92243 23.918 0.257539 23.928 0.257539 23.928C0.172764 23.9297 0.0996284 23.9929 0.0879902 24.0794C0.0763549 24.1742 0.142845 24.2623 0.239254 24.274H0.242578C0.242578 24.274 0.922448 24.3605 2.11257 24.3854C2.70763 24.3987 3.4324 24.3921 4.26516 24.3405C5.09626 24.289 6.03711 24.2058 7.05605 24.0345C9.08727 23.6918 11.4777 23.0714 13.8313 21.7907C15.0049 21.1537 16.1684 20.3537 17.2057 19.3557C18.2462 18.366 19.1688 17.1951 19.9001 15.9093C19.9916 15.748 20.0913 15.5917 20.1761 15.427L20.4204 14.9313C20.585 14.6003 20.7445 14.266 20.8775 13.925L21.087 13.4144L21.1385 13.2863L21.1651 13.2231L21.1717 13.2065C21.1933 13.1416 21.1485 13.2764 21.1551 13.2581L21.1667 13.2298L21.2648 12.9986C21.3978 12.6926 21.5291 12.3865 21.6604 12.0821C21.7917 11.7778 21.9231 11.475 22.0544 11.1723C22.2023 10.9195 22.3386 10.6667 22.4733 10.4156C22.6079 10.1644 22.7442 9.91658 22.8656 9.66378C23.0035 9.41595 23.1681 9.17646 23.3127 8.93362C23.4573 8.68912 23.6019 8.44796 23.7366 8.20346C23.8862 7.9706 24.0507 7.75437 24.2003 7.52985C24.3566 7.30864 24.4962 7.0791 24.6475 6.86122C24.812 6.65664 24.9733 6.45372 25.1328 6.25412C25.2126 6.15266 25.2907 6.05286 25.3705 5.95306C25.447 5.84994 25.5251 5.75014 25.6132 5.66532C25.7844 5.48402 25.9523 5.30605 26.1185 5.12975C26.1966 5.04326 26.2781 4.95344 26.3579 4.86529L26.3578 4.86535Z" fill="#4AF6CD"/>
<path fill-rule="evenodd" clip-rule="evenodd" d="M38.8297 23.5702C39.4663 23.8546 39.837 23.9926 39.837 23.9926L39.8371 23.9926C39.9002 24.0159 39.9335 24.0858 39.9086 24.1457C39.8869 24.2005 39.8288 24.2322 39.7706 24.2222C39.7706 24.2222 39.3733 24.1457 38.6901 23.971C38.0053 23.7997 37.0395 23.5053 35.8992 23.0778C35.809 23.0422 35.7172 23.0066 35.6242 22.9706C35.4259 22.8937 35.222 22.8146 35.015 22.7286C34.8727 22.666 34.7283 22.6031 34.5819 22.5393C34.4168 22.4673 34.2491 22.3943 34.0791 22.3194C33.9574 22.2591 33.8341 22.1983 33.7097 22.137C33.5114 22.0392 33.31 21.9399 33.1067 21.8387C32.8635 21.7027 32.6165 21.5638 32.3658 21.4228C32.2824 21.376 32.1986 21.3288 32.1144 21.2815C32.0087 21.2142 31.9026 21.1466 31.7961 21.0786C31.571 20.935 31.3439 20.7902 31.1137 20.6445C30.8779 20.4776 30.6455 20.3014 30.4103 20.1231C30.3173 20.0525 30.2239 19.9817 30.1297 19.911C29.9626 19.7651 29.7951 19.6178 29.6271 19.47C29.4792 19.3399 29.3309 19.2094 29.1822 19.0794C29.0935 18.9856 29.0041 18.8921 28.9145 18.7982C28.7082 18.5823 28.5006 18.3651 28.2979 18.1413L27.894 17.624L27.6928 17.3646L27.5898 17.2348L27.5648 17.2032L27.5515 17.1866C27.5492 17.1826 27.5485 17.1812 27.5485 17.1813C27.5486 17.1814 27.5664 17.2128 27.5183 17.1317L27.5133 17.1234L27.4718 17.0602L27.146 16.5595C27.1126 16.5057 27.079 16.4559 27.0453 16.4062C26.9699 16.2945 26.8942 16.1827 26.8218 16.024C26.7727 15.9221 26.7208 15.8199 26.6688 15.7175C26.5077 15.4003 26.345 15.0801 26.2583 14.7532C26.2441 14.7095 26.2296 14.6657 26.2152 14.622C26.1588 14.4516 26.1025 14.2813 26.0589 14.1079C26.0435 14.0126 26.0284 13.9176 26.0133 13.8229C25.9926 13.6928 25.972 13.5633 25.9508 13.4343C25.9463 13.3903 25.9405 13.3468 25.9347 13.3034C25.9257 13.2353 25.9167 13.1674 25.9126 13.0983L25.9159 12.7557C25.9188 12.6909 25.9203 12.6263 25.9217 12.5619C25.9255 12.4002 25.9292 12.2399 25.9542 12.0804C25.9823 11.9075 26.0184 11.7375 26.054 11.5697C26.0646 11.5196 26.0752 11.4698 26.0855 11.4201C26.111 11.2759 26.1675 11.1361 26.2231 10.9988C26.2508 10.9303 26.2783 10.8623 26.3016 10.7947L26.4212 10.4953C26.4499 10.4313 26.4874 10.3695 26.5244 10.3084C26.5432 10.2774 26.5618 10.2467 26.5791 10.2159C26.6133 10.1611 26.6461 10.1062 26.6786 10.0517C26.7537 9.92588 26.8274 9.8024 26.9133 9.68864C26.924 9.67601 26.9347 9.66341 26.9454 9.65082C27.2011 9.35026 27.4444 9.06437 27.7427 8.85205C27.959 8.65634 28.2106 8.52325 28.4481 8.39768C28.5153 8.36211 28.5814 8.32715 28.6453 8.29153C28.758 8.24128 28.8734 8.20277 28.9855 8.16535C29.0255 8.15199 29.0651 8.13877 29.1041 8.12521C29.119 8.12018 29.1338 8.11513 29.1486 8.1101C29.2802 8.06528 29.4067 8.02224 29.5412 8.00878C30.113 7.89402 30.6183 7.92562 31.0056 8.00379C31.2018 8.04537 31.3696 8.09194 31.5126 8.13352C31.6539 8.19506 31.7702 8.24829 31.8617 8.29486C32.0445 8.38634 32.1359 8.4379 32.1359 8.4379C32.1958 8.47283 32.2157 8.54934 32.1808 8.60922C32.1609 8.64414 32.1276 8.66577 32.091 8.67076L32.0744 8.67408C32.0744 8.67408 31.973 8.68905 31.7835 8.71733C31.7084 8.73099 31.6198 8.74129 31.5206 8.75283C31.499 8.75533 31.4769 8.7579 31.4544 8.76057C31.412 8.7723 31.3675 8.78535 31.3213 8.79889C31.23 8.82566 31.1321 8.85436 31.0305 8.87866C30.9246 8.89577 30.8154 8.9465 30.7032 8.99869C30.6517 9.02261 30.5996 9.04684 30.5468 9.06827C30.4314 9.10382 30.3211 9.17352 30.2085 9.24464C30.1526 9.27998 30.0962 9.31567 30.0382 9.3477C29.9217 9.41721 29.8127 9.51015 29.7031 9.60359C29.6501 9.64877 29.597 9.69407 29.5429 9.7369C29.4939 9.7956 29.4416 9.8504 29.3892 9.90524C29.2888 10.0104 29.1883 10.1158 29.1107 10.2492C28.8347 10.6101 28.6452 11.0625 28.5389 11.5532C28.5315 11.5996 28.5202 11.6445 28.5088 11.6893C28.4892 11.7666 28.4697 11.8438 28.4707 11.9291C28.4684 11.9588 28.4664 11.9887 28.4643 12.0186C28.4571 12.1206 28.4499 12.2233 28.4358 12.3249C28.4294 12.3983 28.4336 12.4752 28.4378 12.5525C28.4412 12.6155 28.4447 12.6788 28.4424 12.7407C28.4424 12.7582 28.4426 12.7756 28.4427 12.7931C28.443 12.8456 28.4433 12.8983 28.4408 12.952C28.4431 13.0017 28.451 13.0522 28.459 13.103C28.4625 13.1252 28.466 13.1475 28.469 13.1698C28.4769 13.2472 28.4842 13.3249 28.4916 13.4029C28.4983 13.4742 28.5051 13.5458 28.5123 13.6173C28.5488 13.7686 28.5821 13.9233 28.612 14.0796C28.6419 14.2891 28.7 14.4787 28.7588 14.6708C28.7915 14.7777 28.8245 14.8854 28.853 14.9977C28.8696 15.0999 28.9303 15.2309 28.9909 15.3616C29.0152 15.414 29.0394 15.4663 29.0608 15.5167L29.3068 16.0605L29.3367 16.1287L29.34 16.1337L29.3434 16.1404L29.4115 16.2568L29.5512 16.4863L29.8321 16.9521C29.9586 17.1172 30.0847 17.2823 30.2105 17.4472C30.3077 17.5745 30.4048 17.7017 30.5019 17.8286L31.2599 18.6469C31.5325 18.9014 31.8035 19.1542 32.0727 19.4037C32.1668 19.4819 32.2605 19.5598 32.3538 19.6375C32.5425 19.7945 32.7298 19.9503 32.9155 20.1039C33.2064 20.3201 33.4939 20.533 33.7749 20.741C34.0657 20.9389 34.3516 21.1318 34.6292 21.3181C34.9151 21.4961 35.1927 21.6691 35.462 21.8371C35.6348 21.9404 35.8063 22.0377 35.9739 22.1328C36.0707 22.1877 36.1662 22.2419 36.2599 22.2961C36.7768 22.5822 37.2605 22.8317 37.6944 23.0413C38.1299 23.2525 38.5122 23.4288 38.8297 23.5702ZM29.32 16.1019C29.3197 16.1014 29.3192 16.1008 29.3184 16.1L29.3267 16.1149L29.33 16.1183C29.3267 16.1133 29.3217 16.105 29.32 16.1016C29.32 16.1017 29.32 16.1018 29.32 16.1019Z" fill="#4AF6CD"/>
<path d="M31.4877 2.96101C30.7065 3.12225 30.2128 3.3267 30.2128 3.3267C30.1812 3.34 30.1562 3.37158 30.1562 3.40815C30.1546 3.45636 30.1945 3.49625 30.2427 3.49625C30.2443 3.49625 30.7596 3.49957 31.5193 3.58767C31.8983 3.62424 32.3338 3.7007 32.7926 3.78049C33.2497 3.88355 33.7334 3.97663 34.1971 4.12291C34.3135 4.1628 34.4299 4.19439 34.5429 4.2376C34.6543 4.28747 34.764 4.33568 34.8737 4.38388C35.0931 4.47863 35.2992 4.58335 35.507 4.65482C35.7181 4.71799 35.9226 4.77284 36.1237 4.80941C36.3298 4.84266 36.5259 4.87424 36.7071 4.9025C36.8916 4.93076 37.0712 4.94073 37.2341 4.94904C37.392 4.96566 37.5382 4.97564 37.6629 4.97564C37.9139 4.98062 38.0801 4.96234 38.0801 4.96234L38.0868 4.96068C38.0951 4.95902 38.1017 4.95735 38.1101 4.95569C38.1666 4.93574 38.1948 4.87258 38.1749 4.81607C38.1749 4.81607 38.12 4.6648 37.9854 4.44206C37.9189 4.32737 37.8291 4.19938 37.7178 4.05642C37.6047 3.91846 37.4634 3.78215 37.3022 3.64087C37.2224 3.56772 37.1343 3.49791 37.0429 3.4281C36.9465 3.36826 36.8501 3.30011 36.7437 3.24193C36.5376 3.11394 36.3065 2.99924 36.0539 2.93109C35.8029 2.85463 35.5336 2.81473 35.2577 2.8031C34.9834 2.77817 34.7074 2.76653 34.4332 2.75323C34.1606 2.7283 33.888 2.73162 33.622 2.72664C33.3561 2.71999 33.0934 2.74658 32.8425 2.75988C32.5898 2.7898 32.3505 2.8031 32.1227 2.84465C31.8967 2.88289 31.6839 2.91945 31.4877 2.96101L31.4877 2.96101Z" fill="#4AF6CD"/>
<path d="M37.1094 9.11115C37.2756 9.18595 37.4053 9.26907 37.5349 9.32891C37.7726 9.46189 37.9389 9.54167 37.9389 9.54167L37.9488 9.54666C37.9621 9.55331 37.9771 9.55663 37.9937 9.55663C38.0469 9.55497 38.0901 9.51009 38.0901 9.45524C38.0901 9.45524 38.0885 9.41036 38.0868 9.32725C38.0818 9.24414 38.0768 9.11947 38.0436 8.9682C38.007 8.82026 37.9621 8.63243 37.8707 8.43961C37.7893 8.23682 37.6662 8.02904 37.5133 7.81459C37.4352 7.70987 37.3471 7.60348 37.2557 7.4971C37.1576 7.39903 37.0595 7.28932 36.9482 7.19291C36.7288 6.99511 36.4761 6.81226 36.1952 6.66764C35.9143 6.52468 35.6051 6.41997 35.2909 6.34184C34.9768 6.25707 34.6593 6.19058 34.3468 6.11744C33.7217 5.97283 33.0968 5.87143 32.51 5.82489C31.9249 5.77003 31.378 5.76006 30.9109 5.76505C29.9784 5.77669 29.3651 5.86977 29.3651 5.86977C29.3285 5.87476 29.2986 5.90302 29.2903 5.93958C29.2819 5.98779 29.3119 6.03433 29.3601 6.04264C29.3601 6.04264 29.9602 6.15734 30.8362 6.38839C31.2733 6.50142 31.777 6.64936 32.3056 6.82388C32.5699 6.90865 32.8375 7.01171 33.1101 7.10812C33.3794 7.20786 33.6503 7.31756 33.9129 7.43558C34.1756 7.55526 34.4299 7.69156 34.6642 7.84116C34.9019 7.9891 35.123 8.14036 35.3458 8.26337C35.5685 8.38471 35.7829 8.4911 35.9973 8.58418C36.2084 8.68226 36.4079 8.77534 36.5924 8.86177C36.7819 8.95154 36.9564 9.03631 37.1093 9.11111L37.1094 9.11115Z" fill="#4AF6CD"/>
<path d="M36.1817 11.2022C36.1185 11.0709 36.0287 10.9479 35.929 10.8166C35.8309 10.6836 35.7046 10.5772 35.565 10.4758C35.4254 10.3761 35.2558 10.3162 35.0879 10.2514C34.9184 10.1949 34.7472 10.14 34.5826 10.0785C34.2501 9.96715 33.9194 9.86077 33.6019 9.80425C33.2877 9.73444 32.9885 9.70286 32.7358 9.67626C32.2305 9.62473 31.8881 9.64634 31.8881 9.64634C31.8631 9.648 31.8399 9.66296 31.8266 9.6879C31.81 9.72447 31.8249 9.76768 31.8615 9.78431C31.8615 9.78431 32.1624 9.92559 32.5946 10.1517C32.809 10.2697 33.0533 10.411 33.3093 10.5656C33.434 10.6453 33.5636 10.7268 33.6933 10.8082C33.8246 10.888 33.9493 10.9811 34.0756 11.0676C34.197 11.1606 34.3133 11.262 34.4197 11.3668C34.5194 11.4781 34.6275 11.5745 34.7305 11.6576C34.8319 11.7408 34.9549 11.7956 35.0646 11.8521C35.1727 11.9103 35.2907 11.9519 35.3987 11.9951C35.5018 12.04 35.6082 12.0765 35.7112 12.1064C35.8143 12.1364 35.8958 12.1713 35.9772 12.1929C36.1368 12.2411 36.2531 12.261 36.2531 12.261L36.2581 12.2627C36.3097 12.2727 36.3595 12.2378 36.3695 12.1862C36.3695 12.1862 36.3894 12.0765 36.3778 11.8953C36.3712 11.8056 36.3612 11.6909 36.3279 11.5762C36.293 11.4615 36.2465 11.3352 36.1817 11.2022H36.1817Z" fill="#4AF6CD"/>
</svg>

<svg width="40" height="25" fill="none" xmlns="http://www.w3.org/2000/svg"><path d="M26.358 4.865l.262-.236c.175-.155.345-.313.51-.469.162-.166.353-.276.521-.417.173-.135.34-.275.509-.4.35-.224.676-.472 1.007-.662.33-.184.638-.387.944-.525l.434-.225.409-.181c.52-.241.95-.388 1.247-.496.297-.096.457-.146.457-.146l.015-.005a.18.18 0 00.116-.116.181.181 0 00-.116-.227s-.18-.056-.509-.116c-.165-.027-.372-.067-.613-.082-.243-.02-.526-.05-.84-.04-.158.002-.326-.001-.5.009a51.26 51.26 0 00-.547.05c-.386.026-.79.114-1.23.204-.225.037-.442.107-.67.177l-.706.22c-.462.194-.968.387-1.46.65-.242.136-.492.277-.743.429-.126.074-.253.15-.38.227-.12.089-.242.177-.363.265-.24.185-.487.37-.738.56-.26.183-.465.421-.703.64l-.701.684a28.88 28.88 0 00-.63.772c-.205.266-.428.53-.617.812-.181.288-.352.585-.53.883-.168.304-.356.595-.506.918-.146.33-.282.665-.42 1.003-.138.336-.276.675-.404 1.016l-.268.955-.27.961-.15.53-.118.437c-.042.146-.075.294-.122.439l-.158.424-.158.427c-.054.142-.124.275-.186.415a12.426 12.426 0 01-1.974 3.038 14.842 14.842 0 01-2.693 2.382c-.976.677-2.008 1.221-3.022 1.678a23.305 23.305 0 01-2.967 1.083 30.116 30.116 0 01-4.696.963c-1.159.145-1.823.155-1.823.155a.175.175 0 00-.17.151.174.174 0 00.151.195h.004s.68.086 1.87.111c.595.014 1.32.007 2.152-.045a26.588 26.588 0 002.791-.305c2.031-.343 4.422-.964 6.775-2.244 1.174-.637 2.337-1.437 3.375-2.435 1.04-.99 1.963-2.16 2.694-3.447.092-.161.191-.317.276-.482l.244-.496c.165-.33.324-.665.457-1.006l.21-.51.052-.129.026-.063.007-.017c.021-.064-.024.07-.017.052l.012-.028.098-.231c.133-.306.264-.613.395-.917l.394-.91c.148-.253.285-.505.42-.756.134-.252.27-.5.392-.752.137-.248.302-.488.447-.73.144-.245.289-.486.424-.73.15-.233.314-.45.463-.674.157-.221.296-.45.448-.669l.485-.607c.08-.101.158-.201.238-.3.076-.104.154-.204.242-.289l.506-.535.239-.265z" fill="#4AF6CD"/><path fill-rule="evenodd" clip-rule="evenodd" d="M38.83 23.57c.636.285 1.007.423 1.007.423a.119.119 0 01.072.153.126.126 0 01-.138.076s-.398-.076-1.08-.251a26.77 26.77 0 01-3.067-1 27.303 27.303 0 01-.609-.242l-.433-.19-.503-.22-.37-.182-.602-.298-.741-.416-.252-.141a296.373 296.373 0 01-1-.637c-.236-.167-.469-.344-.704-.522l-.28-.212-.503-.441-.445-.39-.267-.282a32.266 32.266 0 01-.617-.657l-.404-.517-.201-.26-.103-.13-.025-.03-.014-.017-.002-.006s.017.032-.03-.05l-.006-.008-.041-.063-.326-.5a4.482 4.482 0 00-.1-.154 2.352 2.352 0 01-.224-.382l-.153-.307c-.161-.317-.324-.637-.41-.964l-.044-.131a7.338 7.338 0 01-.156-.514l-.046-.285-.062-.389a4.252 4.252 0 00-.016-.13 2.4 2.4 0 01-.022-.206l.003-.342.006-.194c.003-.162.007-.322.032-.482.028-.172.064-.342.1-.51l.032-.15c.025-.144.082-.284.137-.421.028-.069.055-.137.079-.204l.12-.3c.028-.064.065-.125.102-.187.02-.03.038-.061.055-.092l.1-.164c.075-.126.148-.25.234-.363l.032-.038c.256-.3.5-.587.798-.799.216-.196.468-.329.705-.454.067-.036.133-.07.197-.106.113-.05.228-.09.34-.127l.12-.04.044-.015c.131-.045.258-.088.392-.101a3.72 3.72 0 011.465-.005c.196.041.364.088.507.13a6.515 6.515 0 01.623.304c.06.035.08.111.045.171a.122.122 0 01-.09.062l-.017.003-.29.043c-.076.014-.164.024-.263.036l-.067.008-.133.038a6.574 6.574 0 01-.29.08 1.32 1.32 0 00-.328.12 3.687 3.687 0 01-.156.07c-.116.035-.226.105-.338.176a5.91 5.91 0 01-.17.103c-.117.07-.226.162-.336.256-.053.045-.106.09-.16.133a3.388 3.388 0 01-.154.168c-.1.105-.2.21-.278.344-.276.361-.466.813-.572 1.304a1.524 1.524 0 01-.03.136.914.914 0 00-.038.24l-.007.09a4.516 4.516 0 01-.028.306c-.007.073-.002.15.002.228.003.063.007.126.004.188v.052c.001.053.001.105-.001.159.002.05.01.1.018.151l.01.067.023.233.02.214c.037.152.07.306.1.463.03.21.088.399.147.59.032.108.066.215.094.328.017.102.077.233.138.364l.07.155.246.544.03.068.003.005.003.006.069.117.14.23.28.465.378.495.292.382.758.818c.272.254.543.507.813.757a350.442 350.442 0 01.843.7l.859.637c.29.198.577.39.854.577l.833.52c.173.102.344.2.512.295l.286.163c.517.286 1 .536 1.434.745.436.212.818.388 1.136.53zm-9.51-7.468l-.002-.002.009.015.003.003a.228.228 0 01-.01-.016z" fill="#4AF6CD"/><path d="M31.488 2.961c-.782.161-1.275.366-1.275.366a.09.09 0 00-.057.081.086.086 0 00.087.088c.001 0 .517.004 1.276.092.38.036.815.113 1.274.192.457.104.94.197 1.404.343.116.04.233.071.346.115l.33.146c.22.095.426.2.634.27.211.064.416.119.617.155.206.034.402.065.583.093.185.029.364.039.527.047.158.017.304.027.429.027.25.005.417-.014.417-.014l.007-.001.023-.005a.11.11 0 00.065-.14s-.055-.151-.19-.374a3.532 3.532 0 00-.267-.386 3.635 3.635 0 00-.416-.415 3.774 3.774 0 00-.26-.213c-.096-.06-.192-.128-.298-.186a2.603 2.603 0 00-.69-.31 3.202 3.202 0 00-.796-.129c-.275-.025-.55-.036-.825-.05-.272-.025-.545-.021-.811-.026-.266-.007-.529.02-.78.033-.252.03-.492.043-.72.085-.225.038-.438.074-.634.116zm5.622 6.15c.166.075.295.158.425.218.238.133.404.213.404.213l.01.005a.1.1 0 00.045.01.1.1 0 00.096-.102l-.003-.128c-.005-.083-.01-.208-.043-.359-.037-.148-.082-.336-.173-.528a3.074 3.074 0 00-.358-.625 6.003 6.003 0 00-.257-.318c-.098-.098-.197-.208-.308-.304a3.58 3.58 0 00-.753-.525 4.274 4.274 0 00-.904-.326c-.314-.085-.632-.151-.944-.225a12.707 12.707 0 00-1.837-.292 15.37 15.37 0 00-1.6-.06c-.932.012-1.545.105-1.545.105a.09.09 0 00-.075.07.088.088 0 00.07.103s.6.114 1.476.345c.437.113.941.261 1.47.436.264.085.532.188.804.284.27.1.54.21.803.328.263.12.517.256.751.405.238.148.459.3.682.422.223.122.437.228.651.321l.595.278c.19.09.364.174.517.25zm-.928 2.091a2.324 2.324 0 00-.253-.385 1.62 1.62 0 00-.364-.341c-.14-.1-.31-.16-.477-.225-.17-.056-.34-.111-.505-.172a7.094 7.094 0 00-.981-.275 7.55 7.55 0 00-.866-.128c-.505-.051-.848-.03-.848-.03a.076.076 0 00-.061.042.072.072 0 00.034.096s.301.142.734.368c.214.118.458.259.714.414.125.08.255.16.384.242.132.08.256.173.383.26a3.7 3.7 0 01.344.299c.1.111.207.207.31.29.102.084.225.139.335.195.108.058.226.1.334.143.103.045.21.082.312.111.103.03.185.065.266.087.16.048.276.068.276.068l.005.002a.096.096 0 00.111-.077s.02-.11.009-.29a1.542 1.542 0 00-.05-.32 2.534 2.534 0 00-.146-.374z" fill="#4AF6CD"/></svg>
